static/assets/img/icons/theme/weather/rain-5.svg

<svg height="24" viewBox="0 0 24 24" width="24" xmlns="http://www.w3.org/2000/svg"><g fill="none" fill-rule="evenodd"><path d="m0 0h24v24h-24z" opacity="0"/><g fill="#000"><path d="m4.30769231 13c-1.27450327 0-2.30769231-1.0073593-2.30769231-2.25 0-.82842712.76923077-2.07842712 2.30769231-3.75 1.53846154 1.67157288 2.30769231 2.92157288 2.30769231 3.75 0 1.2426407-1.03318904 2.25-2.30769231 2.25zm15.38461539 0c-1.2745033 0-2.3076923-1.0073593-2.3076923-2.25 0-.82842712.7692308-2.07842712 2.3076923-3.75 1.5384615 1.67157288 2.3076923 2.92157288 2.3076923 3.75 0 1.2426407-1.033189 2.25-2.3076923 2.25zm-11.38461539 7c-1.27450327 0-2.30769231-1.0073593-2.30769231-2.25 0-.8284271.76923077-2.0784271 2.30769231-3.75 1.53846154 1.6715729 2.30769229 2.9215729 2.30769229 3.75 0 1.2426407-1.03318902 2.25-2.30769229 2.25zm7.69230769 0c-1.2745033 0-2.3076923-1.0073593-2.3076923-2.25 0-.8284271.7692308-2.0784271 2.3076923-3.75 1.5384615 1.6715729 2.3076923 2.9215729 2.3076923 3.75 0 1.2426407-1.033189 2.25-2.3076923 2.25z" opacity=".3"/><path d="m12 13c1.2745033 0 2.3076923-1.0073593 2.3076923-2.25 0-.82842712-.7692308-2.07842712-2.3076923-3.75-1.5384615 1.67157288-2.30769231 2.92157288-2.30769231 3.75 0 1.2426407 1.03318901 2.25 2.30769231 2.25z"/></g></g></svg>

<svg width="24px" height="24px" viewBox="0 0 24 24" version="1.1" xmlns="http://www.w3.org/2000/svg" xmlns:xlink="http://www.w3.org/1999/xlink">
    <title>Icon For Rain#5</title>
    <g stroke="none" stroke-width="1" fill="none" fill-rule="evenodd">
        <polygon points="0 0 24 0 24 24 0 24" opacity="0"></polygon>
        <path d="M4.30769231,13 C3.03318904,13 2,11.9926407 2,10.75 C2,9.92157288 2.76923077,8.67157288 4.30769231,7 C5.84615385,8.67157288 6.61538462,9.92157288 6.61538462,10.75 C6.61538462,11.9926407 5.58219558,13 4.30769231,13 Z M19.6923077,13 C18.4178044,13 17.3846154,11.9926407 17.3846154,10.75 C17.3846154,9.92157288 18.1538462,8.67157288 19.6923077,7 C21.2307692,8.67157288 22,9.92157288 22,10.75 C22,11.9926407 20.966811,13 19.6923077,13 Z M8.30769231,20 C7.03318904,20 6,18.9926407 6,17.75 C6,16.9215729 6.76923077,15.6715729 8.30769231,14 C9.84615385,15.6715729 10.6153846,16.9215729 10.6153846,17.75 C10.6153846,18.9926407 9.58219558,20 8.30769231,20 Z M16,20 C14.7254967,20 13.6923077,18.9926407 13.6923077,17.75 C13.6923077,16.9215729 14.4615385,15.6715729 16,14 C17.5384615,15.6715729 18.3076923,16.9215729 18.3076923,17.75 C18.3076923,18.9926407 17.2745033,20 16,20 Z" fill="#000000" opacity="0.3"></path>
        <path d="M12,13 C13.2745033,13 14.3076923,11.9926407 14.3076923,10.75 C14.3076923,9.92157288 13.5384615,8.67157288 12,7 C10.4615385,8.67157288 9.69230769,9.92157288 9.69230769,10.75 C9.69230769,11.9926407 10.7254967,13 12,13 Z" fill="#000000"></path>
    </g>
</svg>
